X:1482
T:Sarabande
C:Andreas Hammerschmidt
O:Germany
B:Hammerschmidt: "Ander Theil Allerhand newer Paduanen, Galliarden..." (1639)
Z:Transcribed by Frank Nordberg - http://www.musicaviva.com
F:http://abc.musicaviva.com/tunes/hammerschmidt-andreas/hammerschmidt-srbnd-03-kbd.abc
M:3/4
L:1/4
K:C
V:1
ggg|fff|eee|dc/d/c::ddd|ccc|
V:2
CCC|D2D|E2F|G2C::G,G,G,|A,2A,|
%
V:1
BBB|AG/A/G::ccc|ddd|ed/e/f/e/|dc/d/c:|
V:2
B,2C|D2G,::A,A,A,|B,2G,|CCF,|G,2C:|
W:
W:
W:  From Musica Viva - http://www.musicaviva.com
W:  the Internet center for free sheet music downloads.


